X:149
T:Four Up
C:Barry Goodman, 2001
Z:Jack Campin, http://www.campin.me.uk/
F:Jack Campin's Nine-Note Tunebook
% last edit 24-02-2013
M:C|
L:1/8
Q:1/2=70
N:original key
K:EMin
E2 EF   G2 GA|BA GB- BA G2|AF AB AG F2|E2 F2 G2 F2|
E2 EF   G2 GA|BA GB- BA G2|AF AB AG F2|G2 F2 E4  :|
c2 c c- cc c2|BA GB- BA G2|AF AB AG F2|G2 A2 B4   |
c2 c c- cc c2|BA GB- BA G2|AF AB AG F2|G2 F2 E4  :|

